public/images/logo.svg

<svg xmlns="http://www.w3.org/2000/svg" width="607" height="268" fill="none"><path fill="#000" d="M3.52273 230.909h4.20454l9.88633 24.148h.3409l9.8864-24.148h4.2046V260H28.75v-22.102h-.2841L19.375 260h-3.1818l-9.09093-22.102h-.28409V260H3.52273v-29.091Zm53.08597 0h4.0341l8.0681 13.58h.3409l8.0682-13.58h4.0341l-10.5113 17.102V260H67.12v-11.989l-10.5113-17.102ZM160.369 240h-3.522c-.209-1.013-.573-1.903-1.094-2.67-.512-.768-1.137-1.411-1.875-1.932-.729-.531-1.539-.928-2.429-1.193-.89-.266-1.818-.398-2.784-.398-1.762 0-3.357.445-4.787 1.335-1.421.89-2.552 2.202-3.395 3.935-.833 1.733-1.25 3.859-1.25 6.378 0 2.518.417 4.644 1.25 6.377.843 1.733 1.974 3.045 3.395 3.935 1.43.89 3.025 1.335 4.787 1.335.966 0 1.894-.132 2.784-.397.89-.266 1.7-.659 2.429-1.179.738-.531 1.363-1.179 1.875-1.946.521-.777.885-1.667 1.094-2.671h3.522c-.265 1.487-.748 2.817-1.449 3.992-.7 1.174-1.572 2.173-2.613 2.997-1.042.814-2.211 1.434-3.509 1.861-1.288.426-2.665.639-4.133.639-2.481 0-4.688-.606-6.62-1.818-1.931-1.213-3.451-2.936-4.559-5.171-1.108-2.235-1.662-4.886-1.662-7.954 0-3.069.554-5.72 1.662-7.955 1.108-2.235 2.628-3.958 4.559-5.17 1.932-1.213 4.139-1.819 6.62-1.819 1.468 0 2.845.213 4.133.64 1.298.426 2.467 1.051 3.509 1.875 1.041.814 1.913 1.808 2.613 2.983.701 1.164 1.184 2.495 1.449 3.991Zm50.238 5.455c0 3.068-.554 5.719-1.662 7.954-1.108 2.235-2.628 3.958-4.559 5.171-1.932 1.212-4.139 1.818-6.62 1.818s-4.687-.606-6.619-1.818c-1.932-1.213-3.452-2.936-4.56-5.171-1.108-2.235-1.662-4.886-1.662-7.954 0-3.069.554-5.72 1.662-7.955 1.108-2.235 2.628-3.958 4.56-5.17 1.932-1.213 4.138-1.819 6.619-1.819s4.688.606 6.62 1.819c1.931 1.212 3.451 2.935 4.559 5.17s1.662 4.886 1.662 7.955Zm-3.409 0c0-2.519-.421-4.645-1.264-6.378-.833-1.733-1.965-3.045-3.395-3.935-1.42-.89-3.011-1.335-4.773-1.335-1.761 0-3.357.445-4.787 1.335-1.42.89-2.552 2.202-3.394 3.935-.834 1.733-1.25 3.859-1.25 6.378 0 2.518.416 4.644 1.25 6.377.842 1.733 1.974 3.045 3.394 3.935 1.43.89 3.026 1.335 4.787 1.335 1.762 0 3.353-.445 4.773-1.335 1.43-.89 2.562-2.202 3.395-3.935.843-1.733 1.264-3.859 1.264-6.377ZM245.508 260h-8.977v-29.091h9.375c2.822 0 5.236.582 7.244 1.747 2.007 1.156 3.546 2.817 4.616 4.986 1.07 2.159 1.605 4.744 1.605 7.756 0 3.03-.539 5.639-1.619 7.826-1.079 2.178-2.651 3.855-4.716 5.029-2.064 1.165-4.574 1.747-7.528 1.747Zm-5.455-3.125h5.228c2.405 0 4.398-.464 5.98-1.392 1.581-.928 2.76-2.249 3.537-3.963.776-1.714 1.164-3.755 1.164-6.122 0-2.349-.383-4.371-1.15-6.066-.767-1.704-1.913-3.011-3.438-3.92-1.524-.919-3.423-1.378-5.696-1.378h-5.625v22.841Zm48.75-25.966V260h-3.522v-29.091h3.522Zm50.132 0V260h-3.409l-15.853-22.841h-.284V260h-3.523v-29.091h3.41l15.909 22.898h.284v-22.898h3.466ZM385.87 240c-.312-.956-.724-1.813-1.236-2.571-.502-.767-1.103-1.42-1.804-1.96-.691-.54-1.477-.952-2.358-1.236-.88-.284-1.846-.426-2.897-.426-1.724 0-3.291.445-4.702 1.335-1.411.89-2.533 2.202-3.367 3.935-.833 1.733-1.25 3.859-1.25 6.378 0 2.518.422 4.644 1.265 6.377.842 1.733 1.983 3.045 3.423 3.935 1.439.89 3.059 1.335 4.858 1.335 1.667 0 3.134-.355 4.403-1.065 1.279-.72 2.273-1.733 2.983-3.04.72-1.316 1.08-2.864 1.08-4.645l1.079.228h-8.75v-3.125h11.08v3.125c0 2.395-.512 4.479-1.534 6.25-1.014 1.77-2.415 3.143-4.205 4.119-1.78.966-3.826 1.449-6.136 1.449-2.576 0-4.839-.606-6.79-1.818-1.941-1.213-3.456-2.936-4.545-5.171-1.08-2.235-1.62-4.886-1.62-7.954 0-2.302.308-4.371.924-6.208.625-1.846 1.505-3.418 2.642-4.716 1.136-1.297 2.481-2.291 4.034-2.983 1.553-.691 3.262-1.037 5.128-1.037 1.534 0 2.964.232 4.289.696 1.336.455 2.524 1.104 3.566 1.946 1.051.834 1.927 1.833 2.628 2.998.7 1.155 1.183 2.438 1.448 3.849h-3.636Zm59.499-5.966v-3.125h21.819v3.125h-9.148V260h-3.523v-25.966h-9.148ZM492.624 260v-29.091h17.557v3.125h-14.034v9.83h13.125v3.125h-13.125v9.886h14.261V260h-17.784Zm59.816-21.818c-.171-1.44-.862-2.557-2.074-3.352-1.212-.796-2.699-1.194-4.46-1.194-1.288 0-2.415.209-3.381.625-.957.417-1.705.99-2.244 1.719-.531.729-.796 1.558-.796 2.486 0 .776.185 1.444.554 2.003.379.549.862 1.008 1.449 1.378.587.359 1.203.658 1.847.894.643.228 1.235.412 1.775.554l2.955.796c.757.199 1.6.473 2.528.824.938.35 1.832.828 2.685 1.434.861.597 1.572 1.364 2.13 2.302.559.937.838 2.088.838 3.451 0 1.572-.411 2.993-1.235 4.262-.815 1.269-2.008 2.277-3.58 3.025-1.562.748-3.461 1.122-5.696 1.122-2.083 0-3.887-.336-5.412-1.008-1.515-.673-2.708-1.61-3.579-2.813-.862-1.202-1.35-2.599-1.463-4.19h3.636c.095 1.098.464 2.008 1.108 2.727.653.71 1.477 1.241 2.471 1.591 1.004.341 2.084.512 3.239.512 1.345 0 2.552-.218 3.622-.654 1.07-.445 1.918-1.06 2.543-1.846.625-.796.937-1.724.937-2.785 0-.965-.27-1.751-.809-2.357-.54-.607-1.25-1.099-2.131-1.478-.881-.379-1.832-.71-2.855-.994l-3.58-1.023c-2.272-.653-4.072-1.586-5.397-2.798-1.326-1.212-1.989-2.798-1.989-4.759 0-1.628.44-3.049 1.321-4.261.89-1.222 2.083-2.169 3.58-2.841 1.505-.682 3.186-1.023 5.042-1.023 1.875 0 3.542.337 5 1.009 1.459.663 2.614 1.572 3.466 2.727.862 1.155 1.316 2.467 1.364 3.935h-3.409Zm28.007-4.148v-3.125h21.819v3.125h-9.148V260h-3.523v-25.966h-9.148ZM3 .684204h31.4737v220.316H3zM191.842.684204h31.4737v220.316H191.842zM568.511.684204H601v220.316h-32.489zM96.4058.684204h31.4737v220.316H96.4058z"/><path fill="#000" d="M3 32.1579V.6842h220.316v31.4737z"/><path fill="#000" d="M191.842 32.1579V.6842h220.316v31.4737z"/><path fill="#000" d="M380.684 32.1579V.6842H601v31.4737zM191.842 221v-31.4737h220.316V221z"/></svg>

<svg width="607" height="268" viewBox="0 0 607 268" fill="none" xmlns="http://www.w3.org/2000/svg">
<path d="M3.52273 230.909H7.72727L17.6136 255.057H17.9545L27.8409 230.909H32.0455V260H28.75V237.898H28.4659L19.375 260H16.1932L7.10227 237.898H6.81818V260H3.52273V230.909ZM56.6087 230.909H60.6428L68.7109 244.489H69.0518L77.12 230.909H81.1541L70.6428 248.011V260H67.12V248.011L56.6087 230.909ZM160.369 240H156.847C156.638 238.987 156.274 238.097 155.753 237.33C155.241 236.562 154.616 235.919 153.878 235.398C153.149 234.867 152.339 234.47 151.449 234.205C150.559 233.939 149.631 233.807 148.665 233.807C146.903 233.807 145.308 234.252 143.878 235.142C142.457 236.032 141.326 237.344 140.483 239.077C139.65 240.81 139.233 242.936 139.233 245.455C139.233 247.973 139.65 250.099 140.483 251.832C141.326 253.565 142.457 254.877 143.878 255.767C145.308 256.657 146.903 257.102 148.665 257.102C149.631 257.102 150.559 256.97 151.449 256.705C152.339 256.439 153.149 256.046 153.878 255.526C154.616 254.995 155.241 254.347 155.753 253.58C156.274 252.803 156.638 251.913 156.847 250.909H160.369C160.104 252.396 159.621 253.726 158.92 254.901C158.22 256.075 157.348 257.074 156.307 257.898C155.265 258.712 154.096 259.332 152.798 259.759C151.51 260.185 150.133 260.398 148.665 260.398C146.184 260.398 143.977 259.792 142.045 258.58C140.114 257.367 138.594 255.644 137.486 253.409C136.378 251.174 135.824 248.523 135.824 245.455C135.824 242.386 136.378 239.735 137.486 237.5C138.594 235.265 140.114 233.542 142.045 232.33C143.977 231.117 146.184 230.511 148.665 230.511C150.133 230.511 151.51 230.724 152.798 231.151C154.096 231.577 155.265 232.202 156.307 233.026C157.348 233.84 158.22 234.834 158.92 236.009C159.621 237.173 160.104 238.504 160.369 240ZM210.607 245.455C210.607 248.523 210.053 251.174 208.945 253.409C207.837 255.644 206.317 257.367 204.386 258.58C202.454 259.792 200.247 260.398 197.766 260.398C195.285 260.398 193.079 259.792 191.147 258.58C189.215 257.367 187.695 255.644 186.587 253.409C185.479 251.174 184.925 248.523 184.925 245.455C184.925 242.386 185.479 239.735 186.587 237.5C187.695 235.265 189.215 233.542 191.147 232.33C193.079 231.117 195.285 230.511 197.766 230.511C200.247 230.511 202.454 231.117 204.386 232.33C206.317 233.542 207.837 235.265 208.945 237.5C210.053 239.735 210.607 242.386 210.607 245.455ZM207.198 245.455C207.198 242.936 206.777 240.81 205.934 239.077C205.101 237.344 203.969 236.032 202.539 235.142C201.119 234.252 199.528 233.807 197.766 233.807C196.005 233.807 194.409 234.252 192.979 235.142C191.559 236.032 190.427 237.344 189.585 239.077C188.751 240.81 188.335 242.936 188.335 245.455C188.335 247.973 188.751 250.099 189.585 251.832C190.427 253.565 191.559 254.877 192.979 255.767C194.409 256.657 196.005 257.102 197.766 257.102C199.528 257.102 201.119 256.657 202.539 255.767C203.969 254.877 205.101 253.565 205.934 251.832C206.777 250.099 207.198 247.973 207.198 245.455ZM245.508 260H236.531V230.909H245.906C248.728 230.909 251.142 231.491 253.15 232.656C255.157 233.812 256.696 235.473 257.766 237.642C258.836 239.801 259.371 242.386 259.371 245.398C259.371 248.428 258.832 251.037 257.752 253.224C256.673 255.402 255.101 257.079 253.036 258.253C250.972 259.418 248.462 260 245.508 260ZM240.053 256.875H245.281C247.686 256.875 249.679 256.411 251.261 255.483C252.842 254.555 254.021 253.234 254.798 251.52C255.574 249.806 255.962 247.765 255.962 245.398C255.962 243.049 255.579 241.027 254.812 239.332C254.045 237.628 252.899 236.321 251.374 235.412C249.85 234.493 247.951 234.034 245.678 234.034H240.053V256.875ZM288.803 230.909V260H285.281V230.909H288.803ZM338.935 230.909V260H335.526L319.673 237.159H319.389V260H315.866V230.909H319.276L335.185 253.807H335.469V230.909H338.935ZM385.87 240C385.558 239.044 385.146 238.187 384.634 237.429C384.132 236.662 383.531 236.009 382.83 235.469C382.139 234.929 381.353 234.517 380.472 234.233C379.592 233.949 378.626 233.807 377.575 233.807C375.851 233.807 374.284 234.252 372.873 235.142C371.462 236.032 370.34 237.344 369.506 239.077C368.673 240.81 368.256 242.936 368.256 245.455C368.256 247.973 368.678 250.099 369.521 251.832C370.363 253.565 371.504 254.877 372.944 255.767C374.383 256.657 376.003 257.102 377.802 257.102C379.469 257.102 380.936 256.747 382.205 256.037C383.484 255.317 384.478 254.304 385.188 252.997C385.908 251.681 386.268 250.133 386.268 248.352L387.347 248.58H378.597V245.455H389.677V248.58C389.677 250.975 389.165 253.059 388.143 254.83C387.129 256.6 385.728 257.973 383.938 258.949C382.158 259.915 380.112 260.398 377.802 260.398C375.226 260.398 372.963 259.792 371.012 258.58C369.071 257.367 367.556 255.644 366.467 253.409C365.387 251.174 364.847 248.523 364.847 245.455C364.847 243.153 365.155 241.084 365.771 239.247C366.396 237.401 367.276 235.829 368.413 234.531C369.549 233.234 370.894 232.24 372.447 231.548C374 230.857 375.709 230.511 377.575 230.511C379.109 230.511 380.539 230.743 381.864 231.207C383.2 231.662 384.388 232.311 385.43 233.153C386.481 233.987 387.357 234.986 388.058 236.151C388.758 237.306 389.241 238.589 389.506 240H385.87ZM445.369 234.034V230.909H467.188V234.034H458.04V260H454.517V234.034H445.369ZM492.624 260V230.909H510.181V234.034H496.147V243.864H509.272V246.989H496.147V256.875H510.408V260H492.624ZM552.44 238.182C552.269 236.742 551.578 235.625 550.366 234.83C549.154 234.034 547.667 233.636 545.906 233.636C544.618 233.636 543.491 233.845 542.525 234.261C541.568 234.678 540.82 235.251 540.281 235.98C539.75 236.709 539.485 237.538 539.485 238.466C539.485 239.242 539.67 239.91 540.039 240.469C540.418 241.018 540.901 241.477 541.488 241.847C542.075 242.206 542.691 242.505 543.335 242.741C543.978 242.969 544.57 243.153 545.11 243.295L548.065 244.091C548.822 244.29 549.665 244.564 550.593 244.915C551.531 245.265 552.425 245.743 553.278 246.349C554.139 246.946 554.85 247.713 555.408 248.651C555.967 249.588 556.246 250.739 556.246 252.102C556.246 253.674 555.835 255.095 555.011 256.364C554.196 257.633 553.003 258.641 551.431 259.389C549.869 260.137 547.97 260.511 545.735 260.511C543.652 260.511 541.848 260.175 540.323 259.503C538.808 258.83 537.615 257.893 536.744 256.69C535.882 255.488 535.394 254.091 535.281 252.5H538.917C539.012 253.598 539.381 254.508 540.025 255.227C540.678 255.937 541.502 256.468 542.496 256.818C543.5 257.159 544.58 257.33 545.735 257.33C547.08 257.33 548.287 257.112 549.357 256.676C550.427 256.231 551.275 255.616 551.9 254.83C552.525 254.034 552.837 253.106 552.837 252.045C552.837 251.08 552.567 250.294 552.028 249.688C551.488 249.081 550.778 248.589 549.897 248.21C549.016 247.831 548.065 247.5 547.042 247.216L543.462 246.193C541.19 245.54 539.39 244.607 538.065 243.395C536.739 242.183 536.076 240.597 536.076 238.636C536.076 237.008 536.516 235.587 537.397 234.375C538.287 233.153 539.48 232.206 540.977 231.534C542.482 230.852 544.163 230.511 546.019 230.511C547.894 230.511 549.561 230.848 551.019 231.52C552.478 232.183 553.633 233.092 554.485 234.247C555.347 235.402 555.801 236.714 555.849 238.182H552.44ZM580.447 234.034V230.909H602.266V234.034H593.118V260H589.595V234.034H580.447Z" fill="black"/>
<rect x="3" y="0.684204" width="31.4737" height="220.316" fill="black"/>
<rect x="191.842" y="0.684204" width="31.4737" height="220.316" fill="black"/>
<rect x="568.511" y="0.684204" width="32.489" height="220.316" fill="black"/>
<rect x="96.4058" y="0.684204" width="31.4737" height="220.316" fill="black"/>
<rect x="3" y="32.1579" width="31.4737" height="220.316" transform="rotate(-90 3 32.1579)" fill="black"/>
<rect x="191.842" y="32.1579" width="31.4737" height="220.316" transform="rotate(-90 191.842 32.1579)" fill="black"/>
<rect x="380.684" y="32.1579" width="31.4737" height="220.316" transform="rotate(-90 380.684 32.1579)" fill="black"/>
<rect x="191.842" y="221" width="31.4737" height="220.316" transform="rotate(-90 191.842 221)" fill="black"/>
</svg>
